storage/app/icons/phosphoricons/bold/sidebar-bold.svg

<svg xmlns="http://www.w3.org/2000/svg" fill="currentColor" viewBox="0 0 256 256"><path d="M216 36H40a20 20 0 0 0-20 20v144a20 20 0 0 0 20 20h176a20 20 0 0 0 20-20V56a20 20 0 0 0-20-20M44 104h28v20H44Zm28-44v20H44V60Zm-28 88h28v48H44Zm168 48H96V60h116Z"/></svg>

<svg xmlns="http://www.w3.org/2000/svg" viewBox="0 0 256 256" fill="currentColor"><path d="M216,36H40A20,20,0,0,0,20,56V200a20,20,0,0,0,20,20H216a20,20,0,0,0,20-20V56A20,20,0,0,0,216,36ZM44,104H72v20H44ZM72,60V80H44V60ZM44,148H72v48H44Zm168,48H96V60H212Z"/></svg>
